X:255
T:Tune
R:reel
M:4/4
L:1/8
K:G
D2BA G3E | D2BA G3D | E2cB ABAG | FDEF G3E |
D2BA G3E | D2BA G3D | E2cB ABAG | FDEF G3E ::
BGBc d2ef | geed e2d2 | c3c B3B | A2FA D4 |
G2Bc d2ef | geed e2d2 | e3e e2eg |1 fdef g2fe :|2 edBA G3D |]
